src/assets/illustrations/logo.svg

<svg width="35" height="35" viewBox="0 0 35 35" fill="none" xmlns="http://www.w3.org/2000/svg">
<g clip-path="url(#clip0_38729_139)">
<path d="M13.2283 17.5C13.2283 18.5438 12.8129 19.5435 12.0752 20.2809L6.71443 25.6407C6.6244 25.7307 6.53279 25.816 6.43486 25.895C6.20109 26.0892 5.94679 26.2519 5.68144 26.3829C5.13178 26.6561 4.53157 26.7919 3.93294 26.7919C2.9268 26.7919 1.91908 26.4082 1.15145 25.6391C-0.383817 24.1042 -0.383817 21.6138 1.15145 20.0772L3.72918 17.5L1.15145 14.9212C-0.383817 13.3862 -0.383817 10.8958 1.15145 9.35928C2.37556 8.13541 4.21093 7.8859 5.68144 8.61706C5.94995 8.74972 6.20583 8.91395 6.44276 9.10977C6.53595 9.18873 6.62756 9.27085 6.71443 9.3577L6.93082 9.57405L12.0752 14.7175C12.8144 15.4565 13.2283 16.4577 13.2283 17.5Z" fill="#1F2937"/>
<path d="M13.2282 17.5C13.2282 18.5438 12.8128 19.5435 12.0752 20.2809L6.71437 25.6407C6.62434 25.7307 6.53273 25.816 6.4348 25.8949C6.20103 26.0892 5.94673 26.2518 5.68138 26.3829C5.30704 26.1982 4.95797 25.9502 4.64681 25.6391C3.11154 24.1041 3.11154 21.6138 4.64681 20.0772L7.22454 17.5L4.64839 14.9212C3.11312 13.3862 3.11312 10.8958 4.64839 9.35928C4.95955 9.04818 5.30862 8.80183 5.68138 8.61707C5.94989 8.74972 6.20577 8.91395 6.4427 9.10977C6.53589 9.18873 6.6275 9.27085 6.71437 9.3577L6.93076 9.57405L12.0752 14.7175C12.8144 15.4565 13.2282 16.4577 13.2282 17.5Z" fill="#1F2937"/>
<path d="M35 17.4999C35 26.6134 27.5842 34.0277 18.469 34.0277H10.5794C8.50712 34.0277 6.80759 32.4248 6.65753 30.3893C6.64806 30.2929 6.6449 30.195 6.6449 30.094C6.6449 27.9226 8.40603 26.1602 10.5794 26.1602H18.4706C23.247 26.1602 27.1341 22.2754 27.1341 17.4984C27.1341 12.7229 23.247 8.83652 18.4706 8.83652H10.5794C8.40761 8.83652 6.6449 7.07573 6.6449 4.90276C6.6449 4.80328 6.64806 4.70379 6.65753 4.60746C6.80759 2.57504 8.50554 0.972168 10.5794 0.972168H18.4706C27.5858 0.972168 35 8.38645 35 17.4999Z" fill="#1F2937"/>
<path d="M6.93081 9.5772C6.75233 9.44139 6.58806 9.28347 6.44275 9.11292C6.53594 9.19187 6.62755 9.27399 6.71442 9.36085L6.93081 9.5772Z" fill="#1F2937"/>
<path d="M6.71438 25.6406C6.62435 25.7306 6.53274 25.8159 6.43481 25.8949C6.58487 25.7164 6.75545 25.5554 6.93867 25.4164L6.71438 25.6406Z" fill="#1F2937"/>
<path d="M29.3469 17.4999C29.3469 25.1163 23.1506 31.3099 15.5343 31.3099H8.93831C8.05064 31.3099 7.24826 30.9593 6.65595 30.3892C6.64647 30.2929 6.64331 30.195 6.64331 30.0939C6.64331 27.9225 8.40445 26.1602 10.5778 26.1602H18.469C23.2454 26.1602 27.1325 22.2754 27.1325 17.4983C27.1325 12.7229 23.2454 8.8365 18.469 8.8365H10.5794C8.4076 8.8365 6.64489 7.0757 6.64489 4.90274C6.64489 4.80325 6.64805 4.70376 6.65753 4.60743C7.24984 4.03735 8.05222 3.68677 8.93989 3.68677H15.5343C23.1506 3.68993 29.3469 9.8835 29.3469 17.4999Z" fill="#1F2937"/>
</g>
<defs>
<clipPath id="clip0_38729_139">
<rect width="35" height="33.0555" fill="white" transform="translate(0 0.972168)"/>
</clipPath>
</defs>
</svg>

<svg width="35" height="35" viewBox="0 0 35 35" fill="none" xmlns="http://www.w3.org/2000/svg"><g clip-path="url(#a)" fill="#1F2937"><path d="M13.228 17.5a3.93 3.93 0 0 1-1.153 2.78l-5.36 5.36q-.134.136-.28.255a3.93 3.93 0 0 1-2.502.897 3.934 3.934 0 0 1-2.781-6.715L3.728 17.5 1.15 14.921a3.934 3.934 0 0 1 5.563-5.563l.217.216 5.144 5.143a3.94 3.94 0 0 1 1.153 2.783"/><path d="M13.228 17.5a3.93 3.93 0 0 1-1.153 2.78l-5.36 5.36a3.8 3.8 0 0 1-1.033.742 3.934 3.934 0 0 1-1.035-6.306L7.225 17.5l-2.577-2.579a3.934 3.934 0 0 1 1.033-6.304 3.9 3.9 0 0 1 1.033.74l.217.217 5.144 5.143a3.93 3.93 0 0 1 1.153 2.783"/><path d="M35 17.5c0 9.113-7.416 16.528-16.531 16.528h-7.89a3.93 3.93 0 0 1-3.934-3.934 3.935 3.935 0 0 1 3.934-3.934h7.892c4.776 0 8.663-3.885 8.663-8.662 0-4.775-3.887-8.661-8.663-8.661h-7.892a3.935 3.935 0 0 1-3.921-4.23A3.93 3.93 0 0 1 10.579.972h7.892C27.586.972 35 8.386 35 17.5"/><path d="M6.93 9.577a3 3 0 0 1-.487-.464q.14.118.271.248zM6.714 25.64q-.133.136-.28.255.227-.27.505-.479z"/><path d="M29.347 17.5c0 7.616-6.196 13.81-13.813 13.81H8.938c-.887 0-1.69-.35-2.282-.92a3.935 3.935 0 0 1 3.922-4.229h7.891c4.776 0 8.664-3.886 8.664-8.663 0-4.775-3.888-8.662-8.664-8.662h-7.89a3.935 3.935 0 0 1-3.921-4.229 3.28 3.28 0 0 1 2.282-.92h6.594c7.617.003 13.813 6.197 13.813 13.813"/></g><defs><clipPath id="a"><path fill="#fff" d="M0 .972h35v33.056H0z"/></clipPath></defs></svg>
